X: 61
T:Green grows the Rasses
R:air
S:Oswald's Collection of Curious Scot's Tunes Volume 1
N:pg.46
N: excerpt
Z:Hans Bracker 2005
M:C
L:1/8
K:G
d|TB3A ABde|d/e/f Te>dd3f|e3f gfga|{ga}b2e>fe2T(f3/2e/4f/4)|
gfga{ga}b2T(a>g)|"tr"T(f>e) d/e/f/g/{fg}a2T(g>f)|e2b2afef|{e}d2(Bc)B3:|
